X:2489
T:Flowers of the Forest
M:6/8
E:12
L:1/8
K:D
A3 A2 B|A2 B d2 e/f/|g2 f e2 d|B d2 B>AG|\
A3 A2 B|A2 B d>ef/g/ |f3 e2 d|d3-d2||*
e/d/|=c3 c2 d|B/A/-A2 A3|f3 e2 d|B d2 B>AG|\
A3 A2 B|A2 B d>ef/g/ |f3 e2 d|d3-d2||**
